X:1
T:9 Lieder und Gesänge, Op.32
T:So stehn wir, ich und meine Weide
T:8. So stehn wir, ich und meine Weide
T:Johannes Brahms
T:Georg Friedrich Daumer, nach Hafis
T:9 Lieder und Gesänge, Op.32
T:Creative Commons copyright waiver (CC0 1.0 Universal) 
T:Creative Commons copyright waiver (CC0 1.0 Universal) 
T:Creative Commons copyright waiver (CC0 1.0 Universal) 
C:Johannes Brahms
Z:Georg Friedric Daumer, nach Hafis
Z:Creative Commons copyright waiver (CC0 1.0 Universal)
Z:
%%score 1 { ( 2 4 ) | ( 3 5 ) }
L:1/8
Q:1/4=130
M:2/2
K:Ab
V:1 treble nm="Singstimme\nVoice"
V:2 treble nm="Pianoforte"
V:4 treble 
V:3 bass 
V:5 bass 
V:1
!p!"^In gehender Bewegung" c4 | A4 F4 | d2 c2 B2 F2 | A4 G2 z2 | e4 d2 c2 | B2 A2 G2 A2 | B8 | %7
w: So|stehn wir,|ich und mei- ne|Wei- de,|so lei- der|mit ein- an- der|bei-|
 E4 z4 | B4 c2 d2 | e2 c2 A2 e2 | e4 =d2 z2 | F4 G2 A2 | B2 =B2 c2 =d2 | (f4 e4- | e4 =d4) | %15
w: de:|Nie kann ich|ihr was tun zu|Lie- be,|nie kann sie|mir was tun zu|Lei- *||
 c4 z4 | z8 | G4 A2 B2 | c2 c2 =B2 c2 | (e2 d2) _B2 A2 | G2 =B2 =d2 =e2 | f6 =d2 | c4 =B2 z2 | z8 | %24
w: de.||Sie kränk- et|es, wenn ich die|Sti- rn ihr mit|ei- nem Di- a-|dem be-|klei- de;||
 z8 | G4 =A2 _B2 | c2 =B2 c2 ^c2 | (=e2 =d2) _B2 =A2 | G4 (3G2 _A2 B2 | c6 A2 | A4 G2 z2 | z8 | %32
w: |Ich dan- ke|selbst, wie für ein|Lä- * cheln der|Huld, für ih- re|Zorn- be-|schei- de.||
 z8 | z8 | z4 c4 | A4 F4 | d2 c2 B2 F2 | A4 G2 z2 | e4 d2 c2 | B6 =B2 | c6 e2 | e4 =A2!>(! d2 | %42
w: ||So|stehn wir,|ich und mei- ne|Wei- de,|so lei- der|mit ein-|an- der|Bei- de, so|
 c2 B2!>)! z4 |!pp! B6 =B2 | =B6 c2 |[Q:1/2=60] c8 | A4 z4 | z8 | z8 | z8 | z8 | !fermata!z8 |] %52
w: lei- der|mit ein-|an- der|Bei-|de.||||||
V:2
 (3z2!p! (C2 c2) | (3z2 (C2 c2) (3z2 (C2 c2) | (3z2 (=D2 [A=d]2) (3z2 (D2 [FB]2) | %3
 (3z2 (B,2 [EA]2) (3z2 (B,2 [EG]2) | (3z2 (E2 [Ae]2) (3z2 (E2 [Ac]2) | %5
 (3z2!p!!<(! (C2 [EA]2) (3z2 (C2 [EA]2)!<)! |!>(! (3z2 (A,2 [EB]2) (3z2 (A,2 [=DB]2)!>)! | %7
 (3z2 (G,2 B,2 (3E2 G2 A2) |!p! (B4 c2 d2) | e4 f4 | (e4 =d4) | (F4 G2 A2) | (B2 =B2 c2 =d2) | %13
 ([=df]4 [ce]4- | [ce]4 [=B=d]4) | (c4 _B4- | B4 A4) | %17
 (3z2 (.[=EG]2 .[EG]2 (3.[EG]2 .[EG]2 .[EG]2) | (3z2 (.[Fc]2 .[Fc]2 (3.[_EF=B]2 .[EFB]2 .[EFc]2) | %19
 (3z2 (.[DF_B]2 .[DFB]2 (3.[DFB]2 .[DFB]2 .[CFA]2) | %20
 (3z2 [=B,FG]2 [B,FG]2 (3[FG=d]2 [FGd]2 [FG=e]2 | (3:2:2z2 f4- (3:2:2f4 =d2 |!f!!>(! (c4 =B4)!>)! | %23
 (3:2:2z2 =d4- (3:2:2d4 =B2 | (=A4 G4) |"^espress." (G4 =A2 _B2) | (c2 =B2 c2 ^c2) | %27
 (=e2 =d2!mf!!>(! B2 =A2) | G4!>)!!p!!<(! (3(G2 _A2 B2) | (3:2:1c6!<)!!>(! (3x2 x2 _A2!>)! | %30
!p! [FA]4!<(! (3(.G2 .A2 .B2)!<)! |!>(! (_d2 c2 B2 A2)!>)! |!>(! ((([=B,=DFA]8!>)! | %33
!p! [=EG]4))) z4 | (3z2!p! (C2 c2) (3z2 (C2 c2) | (3z2 (C2 c2) (3z2 (C2 c2) | %36
 (3z2 (D2 [Ad]2) (3z2 (D2 [FB]2) | (3z2 (B,2 [EA]2) (3z2 (B,2 [EG]2) | %38
 (3z2 (E2 [Ae]2) (3z2 (E2 [Ac]2) | (3z2!p!!<(! (E2 [GB]2) (3z2 (E2 [G=B]2) | %40
 (3z2 (E2 [Gc]2) (3z2 (E2!<)!!f! [_G_Be]2) | (3z2 (E2 [_GBe]2)!f!!>(! (3z2 (E2 [F=A]2) | %42
 (3z2 (D2 [FB]2) (3z2 (D2!>)!!pp! [FB]2) | (3z2 (E2 [GB]2) (3z2 (E2 [G=B]2) | %44
 (3z2 (E2 [G=B]2) (3z2 (E2 [Gc]2) | (3z2 (E2 [Gc]2) (3z2 (C2 [Gc]2) | %46
 (3z2 (C2 [EA]2) (3z2 (C2 [EA]2) | B6 =B2- | B6 c2- | c8- | c8 | !fermata![CEA]8 |] %52
V:3
 z4 | z4 (A,4 | F,4 D,4) | z4 (E,4 | C,4 A,,4) | z4 (F,,4 | [B,,,B,,-]8) | [E,,B,,]4 z4 | %8
 (3z2"^espress." [DE]2 [DE]2- (3[DE]2 [DE]2 [DE]2- | %9
!<(! (3[DE]2 [CE]2 [CE]2- (3[CE]2 [_CE]2 [CE]2-!<)! | %10
!>(! (3[CE]2 [B,F]2 [B,F]2- (3[B,F]2 [B,F]2 [B,F]2!>)! |!p! (3z2 (A,2 E2 (3B,2 A,2 F,2) | %12
!<(! (3z2 (G,,2 E,2 (3=D,2 C,2 F,,2)!<)! |!f!!>(! (3(C,,2 G,,2 C,2 (3E,2 G,2 C2) | %14
 (3z2 (G,,2 C,2 (3G,2 =B,2 =D2)!>)! |!p!!<(! (3z2 (C,,2 G,,2 (3C,2 =E,2!<)! G,2) | %16
!>(! (3z2 (F,,2 C,2 (3F,2!>)! A,2 =B,2) | (C4 _B,4 |!<(! A,4 =A,4)!<)! | %19
!>(! [B,,F,B,]4 (B,,2 C,2)!>)! |!<(! (=D,4 =B,,4!<)! |!f! G,,4 =D,4) | G,8 | (G,,4 =D,2 G,2 | %24
 =A,4 =B,4) |!<(! (C4 B,4 | =A,4 F,4)!<)! | B,,4 B,,2 =B,,2 | C,4 C,4 | C,8 | C,4 C,4 | C,8 | %32
 (3z2 (C,,2 C,2) (3z2 (C,,2 C,2) | (3z2 (C,2 C2) (3z2 (C,2 C2) | z8 | z4 (A,4 | F,4 D,4) | %37
 z4 (E,4 | C,4 A,,4) | z4 (G,4 | E,4 C,4) | z4 (F,4 | D,4 B,,4) |!pp!"^dolce poc a poco" z4 (G,4 | %44
 E,4 C,4) |"^rit." z4 (E,4 | C,4!p! A,,4) |!pp!"^dim." z4 (G,4 | E,4 C,4) | z4 (E,4 | C,4 G,,4) | %51
!ppp! !fermata![A,,,A,,]8 |] %52
V:4
 x4 | x8 | x8 | x8 | x8 | x8 | x8 | x8 | G8 | A4 A4 | [Aa]8 | =D8 | [EG]4 [EG]2 [FA]2 | G8- | G8 | %15
 [=EG]8- | [EG]4 [=DF]4 | x8 | x8 | x8 | x8 | (3x2 [FG=B]2 [FGB]2 (3[FGB]2 [FGB]2 [FGB]2 | %22
 (3[=DF]2 [DF]2 [DF]2 (3[DF]2 [DF]2!mp! [DF]2 | (3x2 [F=B]2!mf!!>(! [FB]2 (3[FB]2 [FB]2 [=DF]2 | %24
 (3[CF]2 [CF]2 [CF]2 (3[=DF]2 [DF]2 [DF]2!>)! | (3=E2 E2 E2 (3[CE]2 [CE]2 [CE]2 | %26
 (3[CF]2 [CF]2 [CF]2 (3[_E=A]2 [EA]2 [EA]2 | (3[=D_B]2 [DB]2 [DB]2 (3[DG]2 [DG]2 [DF]2 | %28
 (3=E2 E2 E2 (3[CE]2 [CE]2 [CE]2 | (3[CF]2 [CF]2 [CF]2 (3z2 [=B,=D]2 [B,DF]2 | %30
 (3[=B,=D]2 [B,D]2 [B,D]2 (3[C=E]2 [CE]2 [CE]2 | (3[CF]2 [CF]2 [CF]2 (3[CF]2 [CF]2 [CF]2 | x8 | %33
 C2 z2 x4 | x8 | x8 | x8 | x8 | x8 | x8 | x8 | x8 | x8 | x8 | x8 | x8 | x8 | %47
 (3z2 (E2 G2) (3z2 (E2 G2) | (3z2 (E2 G2) (3z2 (E2 G2) | (3z2 (E2 G2) (3z2 (C2 G2) | %50
 (3z2 (C2 E2) (3z2 (C2 E2) | x8 |] %52
V:5
 x4 | x8 | x8 | x8 | x8 | x8 | x8 | x8 | x8 | x8 | x8 | x8 | x8 | x8 | x8 | x8 | x8 | x8 | x8 | %19
 x8 | x8 | x8 | x8 | x8 | x8 | x8 | x8 | x8 | x4 (_B,,4 | _A,,4 F,,4) | C,,4 (_B,,4 | A,,4 F,,4) | %32
 x8 | x8 | x8 | x8 | x8 | x8 | x8 | x8 | x8 | x8 | x8 | x8 | x8 | x8 | x8 | x8 | x8 | x8 | x8 | %51
 x8 |] %52

